X:1
T:Salve Regina - Aichinger
T:#
%%score [ 1 2 3 4 ]
L:1/8
Q:1/4=100
M:none
K:Eb
V:1 treble nm="Soprano" snm="S"
V:2 treble nm="Alto" snm="A"
V:3 treble-8 nm="Tenor" snm="T"
V:4 bass nm="Bass" snm="B"
V:1
"^Salve Regina""^Gregor Aichinger\n (1564-1628)" x2 x8 ||[Q:1/4=200] z16 | z4 f4 g4 e4 | %3
w: ||Re- gi- na,|
 f8 (e6 d2 | c2 B2 A2 G2 F4) G4 | (A2 B2 c2 d2 e8) | %6
w: ma- ter *|* * * * * mi-|se\- * * * *|
[M:4/2][Q:1/4=200][Q:1/4=200][Q:1/4=200][Q:1/4=200] (c6 d2 e2 d2 c2 B2 | A6 B2 c4) A4 | G6 G2 F8 | %9
w: |* * * ri-|cor- di- ae,|
 z8 z4 c4 | d4 B4 (c2 d2 e2 d2 | c6 BA B4) e4 | %12
w: ma-|ter mi- se\- * * *|* * * * ri-|
[Q:1/4=198] (c6[Q:1/4=195] d2[Q:1/4=193] e4[Q:1/4=190] f4- | %13
w: cor\- * * *|
[Q:1/4=188] f4[Q:1/4=186] =e2[Q:1/4=185] d2[Q:1/4=183] e4)[Q:1/4=181] e4 | %14
w: * * * * di-|
[Q:1/4=180] !fermata!f16 ||[Q:1/4=200] (c8 B8 | c8) F8 | (c8 B8) | (A8 G8 | F8 G8 | A8 B8) | %21
w: ae.|Vi\- *|* ta,|dul\- *|ce\- *|||
 (A8 G8 | F8) E8 | F8 A8 | (B8 A8 | B8 c8) | (F8 G8 |[Q:1/4=196] A12[Q:1/4=192] G4- | %28
w: do, *|* et|spes no-|stra *||sal\- *||
[Q:1/4=190] G4[Q:1/4=187] F8[Q:1/4=185] =E2[Q:1/4=184] D2 | %29
w: |
[Q:1/4=181] =E8)[Q:1/4=180] !fermata!F16 || z4 F4 c4 c4 | (d2 e2 f2 d2 e6 dc | d8) B4 e4 | %33
w: * ve.|Ad te cla-|ma\- * * * * * *|* mus, ad|
 c4 c8 (B4- | B2 =AG A4) B8 | z8 z4 B4 | B4 B4 (c2 B2 c2 d2 | e2 f2 e4) f8 | z4 e6 e2 e4 | %39
w: te cla- ma\-|* * * * mus,|ad|te cla- ma\- * * *|* * * mus|e- xu- les|
 d4 B4 B8 | z4 B6 B2 B4 |[Q:1/4=198] A4[Q:1/4=196] F4[Q:1/4=192] (G6[Q:1/4=190] A2 | %42
w: fi- li- i,|e- xu- les|fi- li- i *|
[Q:1/4=187] B8)[Q:1/4=182] c8 |[Q:1/4=180] !fermata!=A16 ||[Q:1/4=200] (F8 A8) | (B8 c8) | (e16 | %47
w: * E-|vae.|Ad *|te *|su\-|
 B8) c8 | B8 (A8 | B8) c8 | F8 A8 | B8 (F8 | G8) (A8 | G8 F8) | (F8 E8) | F8 (F8 | E8) (A8- | %57
w: * spi\-|* ra\-|* mus|ge- men-|tes et|* flen\-||tes *|in hac|* la\-|
 A8 B8 | c8) B8 | (A8 G8) | (A8 B8) |[Q:1/4=197] (A8[Q:1/4=193] G8 | %62
w: |* cry-|ma\- *|rum *|val\- *|
[Q:1/4=188] F12[Q:1/4=185] =E2[Q:1/4=184] D2 |[Q:1/4=181] =E8)[Q:1/4=180] !fermata!F16 || %64
w: |* le.|
[Q:1/4=200] z4 f4 d4 e4 | (c6 d2 e2 f2 g4) | f4 B4 e4 c4 | (c6 BA G8) | A4 A4 B4 G4 | %69
w: E- ia er-|go * * * *|ad- vo- ca- ta|no\- * * *|stra, e- ia er-|
 A4 F2 F2 (G6 A2 | B2 c2 d6 e2 f4- | f4 e2 d2 c8-) | (c4 d4) e4 (c4- | c2 =B=A B4) c4 e4- | %74
w: go ad- vo- ca\- *|||* * ta no\-|* * * * stra, il\-|
 e4 d8 c4- | c4 B8 A4 | (A2 G2 A2 B2 c2 d2 e4- | e4) c4 _d8 | c4 f4 d4 (e4- | e2 d2 c2 B2 A4) B4 | %80
w: * los tu\-|* os mi-|se\- * * * * * *|* ri- cor-|des, il- los tu\-|* * * * * os|
 G4 A8 G4 | A8 B8 | c6 c2 c4 B4 | A4 F4 G8 | =A8 (c6 B2 | c2 d2 e2 c2 _d4) d4 | c8 B8 | %87
w: mi- se- ri-|cor- des|o- cu- los ad|nos con- ver-|te, il\- *|* * * * * los|tu- os|
 z4 A4 A4 G4 | A12 B4 | c6 c2[Q:1/4=198] c4[Q:1/4=194] d4 | %90
w: mi- se- ri-|cor- des|o- cu- los ad|
[Q:1/4=192] e2[Q:1/4=190] c2[Q:1/4=187] (f6[Q:1/4=184] =e[Q:1/4=183]d[Q:1/4=181] e4) | %91
w: nos con- ver\- * * *|
[Q:1/4=180] !fermata!f24 ||[Q:1/4=200] F8 F8 | (E8 F8) | E8 (F8 | G8) (A8 | G8 F8) | (F8 E8) | %98
w: te.|Et Je-|sum *|be- ne\-|* di\-||ctum *|
 (B8 A8 | G8) F8 | (G8 A8) | B8 (A8 | G8 F8 | E8) F8 | (F8 c8 | _d8 c8) | B8 c8 | (c8 B8 | A8) B8 | %109
w: fru\- *|* ctum|ven\- *|tris tu\-||* i,|no\- *||* bis|post *|* hoc|
 (F8 G8) | A8 (G8 | F8) E8 | (G8 F8 | G8)[Q:1/4=195] (A8 |[Q:1/4=191] G8[Q:1/4=188] F8- | %115
w: ex\- *|i- li\-|* um|o\- *|* sten\-||
[Q:1/4=185] F4[Q:1/4=184] =E2[Q:1/4=183] D2[Q:1/4=181] E8) |[Q:1/4=180] !fermata!F16 || %117
w: |de.|
 z4[Q:1/4=200] e4 (d4 g4-) | (g2 f2 e2 d2 c6 B2 | A2 G2 A2 GF[Q:1/4=198] G6[Q:1/4=195] =A2 | %120
w: O cle\- *|||
[Q:1/4=192] =B8)[Q:1/4=188] c4[Q:1/4=186] e4 |[Q:1/4=182] d8[Q:1/4=180] !fermata!c16 || %122
w: * mes, O|cle- mens.|
[Q:1/4=200] (c8 B8 | c8 e8) |[Q:1/4=197] (f8[Q:1/4=193] e8 |[Q:1/4=189] d8[Q:1/4=185] c8) | %126
w: O *||||
[Q:1/4=181] =B8[Q:1/4=180] !fermata!c16 ||[Q:1/4=200] z4 c4 (d2 e2 f2 d2 | =e2 f2 g2 e2 f6 _ed | %129
w: pi- a.|O dul- * * *||
 c16) | A4 F4 G4 A4 | (A6 B2 c4) c4- | c4 c4 d8 | (e6 d2 c2 B2 A2 G2 | F8) z4 c4 | =A4 A4 B8- | %136
w: |cis, O dul- cis|Vir\- * * go|* Ma- ri-|a, * * * * *|* O|dul- cis Vir\-|
 B8 c4 c4 | f4 f4 (e6 d2 | c2 B2[Q:1/4=197] c8[Q:1/4=193] B2[Q:1/4=192] A2 | %139
w: * go, O|dul- cis Vir\- *||
[Q:1/4=188] G8)[Q:1/4=184] =A4[Q:1/4=181] A4 |[Q:1/4=175] B16 |[Q:1/4=170] !fermata!=A16 |] %142
w: * go Ma-|ri-|a.|
V:2
 x8 x2 || z4 F4 D4 E4 | (C4 D6 C2 C4- | C4 =B,4) C4 C4 | C4 C4 D4 B,4 | C12 G4 | %6
w: |Re- gi- na,|ma\- * * *|* * ter mi-|se- ri- cor- di-|ae, ma-|
[M:4/2] A4 F4 (G2 F2 E2 D2 | C2 B,2 A,2 G,2 F,4) F4 | D4 E4 C4 F4 | F4 D4 (E2 F2 G2 E2 | %10
w: ter mi- se\- * * *|* * * * * ri-|cor- di- ae, ma-|ter mi- se\- * * *|
 F6) F2 E4 C4 | C4 C4 (E2 D2 C2 B,2) | (A,2 B,2 C8) _D4 | C8 C8 | !fermata!C16 || z4 A4 G8 | %16
w: * ri- cor- di-|ae, mi- se\- * * *|* * * ri-|cor- di-|ae.|Vi- ta,|
 E4 F8 B,4 | z4 (E6 F2 G4) | C4 (F6 =ED E4) | F8 z8 | z4 (F2 E2 D2 C2 D4) | C4 (A,4 B,4 C4- | %22
w: dul- ce- do,|dul\- * *|* ce\- * * *|do,|vi\- * * * *|ta, dul\- * *|
 C4 B,4) C4 E4 | C4 _D8 C4 | (E6 _D2 C2 B,2 C4) | B,4 E8 C4 | A8 E4 E4 | F4 D4 (E6 D2 | %28
w: * * do, et|spes no- stra|sal\- * * * *|ve, et spes|no- stra, et|spes no- stra *|
 C2 B,2 C4) C8- | C8 !fermata!C16 || z8 z4 F4 | F4 F4 (E2 F2 G2 E2 | F8) G8 | F8 E4 D4 | F8 D4 F4 | %35
w: * * * sal\-|* ve.|Ad|te cla- ma\- * * *|* mus,|ad te cla-|ma- mus, ad|
 F4 F4 (G2 F2 E2 G2 | F2 E2 F2 G2 A4) F4 | z4 C4 D4 B,4 | E8 C8 | z4 G6 G2 G4 | F4 D4 E8 | %41
w: te cla- ma\- * * *|* * * * * mus,|ad te cla-|ma- mus|e- xu- les|fi- li- i|
 (C6 D2 E4 B,2 C2 | D2 E2 F8 =E4) | !fermata!F16 || z4 C4 C8 | _D8 C4 (A,4- | A,4 G,4) A,4 A4- | %47
w: E\- * * * *||vae.|Ad te|su- spi- ra\-|* * mus, ad|
 A4 G4 A6 A2 | G8 A4 A4 | G4 E8 C4 | _D4 B,4 z4 F4- | F4 (E8 D2 C2 | B,4) C8 D4 | %53
w: * te su- spi-|ra- mus, ad|te su- spi-|ra- mus ge\-|* men\- * *|* tes et|
 (E6 DC D2 C2 C4-) | (C4 =B,4) C8 | z4 (B,6 C2 _D4) | C4 C8 C4 | _D4 C4 z4 E4 | C4 F8 F4 | %59
w: flen\- * * * * *|* * tes|in * *|hac la- cry-|ma- rum, in|hac la- cry-|
 F4 E4 z4 E4 | C4 F4 B,4 E4 | C4 (E6 DC B,2 C2 | _D4 C2 B,2 C8- | C8) !fermata!C16 || z8 z4 G4 | %65
w: ma- rum, in|hac la- cry- ma-|rum val\- * * * *||* le.|E-|
 A4 F4 G4 E4 | F4 G8 A4 | G4 E8 E4 | E8 (E6 D2 | C4) D4 (E6 DC | D4) B,4 (F6 G2 | A12) B4 | %72
w: ia er- go ad-|vo- ca- ta|no- stra, ad-|vo- ca\- *|* ta no\- * *|* stra, il\- *|* los|
 (c4 B2 A2 G8) | G12 G4 | A4 F4 B4 A4- | A4 G4 G4 (F4- | F2 ED C2 D2 E2 F2 G4- | G4) A4 F4 G4 | %78
w: tu\- * * *|os, il-|los tu- os, il\-|* los tu- os||* mi- se- ri-|
 A4 A4 G4 G4 | A8 F8 | =E4 F4 (F4 _E2 _D2 | C2 B,2 A,8 G,4) | A,4 C4 (E6 D2) | C4 (F6 =ED E4) | %84
w: cor- des o- cu-|los ad|nos con- ver\- * *||te, ad nos *|* con\- * * *|
 F4 (C6 B,2 C2 D2 | E4) A,4 B,8 | E8 z4 E4 | E4 C4 E8- | E4 E4 F6 F2 | =E4 E4 F4 F,4 | %90
w: ver- te, * * *|* con- ver-|te, il-|los tu- os|* mi- se- ri-|cor- des o- cu-|
 C4 B,4 C4 C4 | C8 !fermata!C16 || _D8 C8 | C4 C8 D4 | (E6 D2 C4) B,4 | z4 C8 F4 | (D4 E8 D2 C2 | %97
w: los ad nos con-|ver- te.|Et Je-|sum be- ne-|di\- * * ctum,|be- ne-|di\- * * *|
 D8) E4 B,4 | D4 E4 C4 D4 | E4 (B,2 C2 D2 E2 F4-) | F4 =E4 F4 C4 | (G2 F2 E2 D2 C4) D4 | %102
w: * ctum fru-|ctum ven- tris tu-|i be\- * * * *|* ne- di- ctum|fru\- * * * * ctum|
 (E2 DC B,2 C2 _D4) C4 | (C6 B,2 A,2 B,2 C2 _D2 | C4) F,4 z4 F4- | F4 B,8 =A,4 | B,4 F4 (A6 GF | %107
w: ven\- * * * * * tris|tu\- * * * * *|* i, no\-|* bis post|hoc ex- i\- * *|
 E4) A4 (G2 F2 E2 D2 | C4) (F2 E2 D2 C2 B,4) | C4 D4 E4 B,4 | F8 B,8- | B,8 z8 | z4 E4 C4 D4 | %113
w: * li- um, * * *|* ex\- * * * *|i- li- um o-|sten- de,||post hoc ex-|
 (E6 D2 C2 B,2 C2 D2 | E6) E2 _D4 D4 | C16 | !fermata!C16 || z4 G4 (B2 A2 G2 F2) | (E2 F2 G8) C4 | %119
w: i\- * * * * *|* li- um o-|sten-|de.|O cle\- * * *|* * * mens,|
 (C6 D2 E2 F2 G4- | G2 FE D4) G8- | G8 !fermata!=E16 || z4 (E2 F2 G2 A2 B4) | A8 G4 c4 | %124
w: O * * * *|* * * * cle\-|* mens.|O * * * *|pi- a, O|
 (A6 GF G6 A2 | B2 AG F2 G2 A2 G2 F2 E2 | D8) !fermata!C16 || z8 z4 B4 | G4 G4 A4 (F4- | %129
w: pi\- * * * *||* a.|O|dul- cis Vir- go,|
 F2 ED C2 D2 =E2 F2 G2 E2) | F8 z4 C4 | F4 F4 =E8 | F12 F4 | G4 E4 z4 C4 | %134
w: |* O|dul- cis Vir-|go Ma-|ri- a, O|
 (D2 E2 F2 D2 =E2 F2 G2 E2 | F8) G4 E4- | (E2 DC D4) C8 | z4 F4 B,4 B,4 | (E6 D2 E4) (F4- | %139
w: dul\- * * * * * * *|* cis Vir\-|* * * * go,|O dul- cis|Vir\- * * go|
 F2 =ED !courtesy!=E4) F4 (F2 _E2 | _D2 C2 B,2 C2 D2 B,2 D4) | !fermata!C16 |] %142
w: * * * * Ma- ri\- *||a.|
V:3
 c2 B2 c2 F4 || (c8 B8) | (A8 G8 | F8 G8 | A8 B8) | (A8 G8) |[M:4/2][K:treble-8] F8 E8 | F8 A8 | %8
w: Sal\- * * ve|Re\- *|gi\- *|||na, *|ma- ter|mi- se-|
 (B8 A8) | (B8 c8 | F8 G8 | A8 G8) | (F8 G8) | G16 | !fermata!=A16 || z4 (f2 e2 d2 c2 d4) | c8 B8 | %17
w: ri\- *|cor\- *||||di-|ae.|Vi\- * * * *|ta, dul-|
 A4 G4 z8 | z8 z4 (c2 B2 | A2 G2 A4) G4 (c2 B2 | A2 G2 F4) (F6 G2 | A2 B2 c2 d2 e4) E4 | (F8 G8) | %23
w: ce- do,|vi\- *|* * * ta, dul\- *|* * * ce\- *|* * * * * do,|et *|
 A4 (F6 G2 A4-) | A4 G4 A8 | E8 z4 A4- | A4 F4 (c8- | c4 B2 A2 B8) | A8 G8- | G8 !fermata!=A16 || %30
w: spes no\- * *|* stra sal-|ve, et|* spes no\-||stra sal\-|* ve.|
 (F8 A8) | (B8 c8) | B8 (B8 | A8 B8 | c8 B8) | (A8 G8) | B8 A8 | (G8 F8) | (G8 A8 | B8) E8 | %40
w: Ad *|te *|cla- ma\-|||mus *|e- xu-|les *|fi\- *|* li-|
 (F8 G8) | (A8 G8 | F8 G8) | !fermata!F16 || z16 | (F8 A8) | (B8 c8) | z8 e8- | e4 B4 (c8 | B8 A8 | %50
w: i *|E\- *||vae.||Ad *|te *|su\-|* spi- ra\-||
 B8) c8 | G8 A4 (B4- | B4 A2 G2 F8) | G8 (A6 G2) | (F8 G8) | F16 | z8 F8 | (F8 E8) | (A8 B8 | %59
w: * mus|ge- men- tes||et flen\- *||tes|in|hac *|la\- *|
 c8) B8 | (A8 G8) | (A8 B8) | (A8 G8- | G8) !fermata!=A16 || (A8 B8) | (A8 G8) | B8 c8 | e8 B8 | %68
w: * cry-|ma\- *|rum *|val\- *|* le.|E\- *|ia *|er- go|ad- vo-|
 (c8 B8) | (A8 G8 | F8) B8 | c8 f8 | f8 (e8 | d8 e8 | f8) (e8 | d8 c8) | f8 e8 | (c8 B8) | A8 (B8 | %79
w: ca\- *|ta *|* no-|stra, il-|los tu\-||* os||mi- se-|ri\- *|* cor\-|
 c8 _d8 | c8) (B8 | c8 B8) | (F8 G8) | A8 G8 | (F8 E8) | (E8 F8) | A8 (B8 | A8 B8) | c8 (F8 | %89
w: |* des||o\- *|* cu-|los *|ad *|nos con\-||* ver\-|
 G8 A8- | A4 G2 F2 G8) | !fermata!=A24 || F8 A8 | G8 A8 | B4 c8 d4 | (e6 d2 c8) | B8 z4 B4- | %97
w: ||te.|Et Je-|sum be-|ne- di- ctum|fru\- * *|ctum ven\-|
 B4 F4 (G8- | G4 F2 E2 F8) | E8 z8 | z16 | z16 | B12 A4 | G8 F8- | F8 A8 | B8 F8 | _d8 c4 (f4- | %107
w: * tris tu\-||i,|||fru- ctum|ven- tris|* tu-|i, no-|bis post hoc|
 f2 ed c2 d2 e4) g4 | (f2 e2 d2 c2 B2 c2 d2 e2 | f4) B8 e4- | e4 d4 e4 B4 | z4 F4 c4 c4 | %112
w: * * * * * * ex-|i\- * * * * * * *|* li- um|* o- sten- de,|post hoc ex-|
 B4 G4 (A6 GF | E8) z4 A4 | B4 c4 A4 B4 | (A4 G2 F2 G8) | !fermata!=A16 || (c8 B8) | c8 (e8 | %119
w: i- li- um, * *|* ex-|i- li- um o-|sten\- * * *|de.|O *|* cle\-|
 f8 e8 | d8 c8 | =B8) !fermata!c16 || z4 (g6 f2 e2 d2 | c4) f4 e8 | z4 (c2 d2 e2 f2 g4- | %125
w: ||* mens.|O * * *|* pi- a,|O * * * *|
 g2 fe d2 e2 f2 g2 a4) | g8 !fermata!=e16 || (c8 B8 | c8 F8 | A8 G8) | (F8 E8 | F8 G8 | A8 B8) | %133
w: |pi- a.|O *||||||
 B8 (A8 | B8 c8) | F8 E8 | (G8 A8 | B8 G8 | A8) G8- | G8 F8- | F16 | !fermata!F16 |] %142
w: dul- cis||Vir- go|Ma\- *||* ri\-|* a.|||
V:4
 x8 x2 || z4 F,4 G,4 E,4 | F,8 E,4 E,4 | D,6 D,2 C,8 | F,8 B,,4 E,4 | A,,6 B,,2 C,4 C,4 | %6
w: |Re- gi- na,|ma- ter mi-|se- ri- cor-|di- ae, mi-|se- ri- cor- di-|
[M:4/2] F,8 z8 | z8 z4 F,4 | G,4 E,4 F,6 E,2 | D,4 D,4 C,4 E,4 | D,8 C,8 | F,4 A,4 E,8 | %12
w: ae,|ma-|ter mi- se- ri-|cor- di- ae, ma-|ter mi-|se- ri- cor\-|
 (F,6 E,D, C,4 B,,4 | C,12) C,4 | !fermata!F,16 || z4 F,4 G,4 G,4 | (A,2 G,2 F,2 E,2 D,2 C,2 D,4) | %17
w: |* di-|ae.|Vi- ta, dul-|ce\- * * * * * *|
 (C,6 D,2 E,8) | F,8 C,8 | F,8 =E,8 | F,8 B,,8 | F,8 E,4 C,4 | D,8 C,4 C,4 | F,4 B,,4 F,8 | %24
w: do, * *|vi- ta,|dul- ce-|do, et|spes no- stra|sal- ve, et|spes no- stra|
 E,8 A,,4 A,4- | A,4 G,4 A,8 | _D,8 C,4 C,4 | F,8 E,8 | (A,,6 B,,2 C,8- | C,8) !fermata!F,16 || %30
w: sal- ve, et|* spes no-|stra, et spes|no- stra|sal\- * *|* ve.|
 z4 F,4 F,4 F,4 | D,8 C,8 | z4 B,,4 E,4 E,4 | (F,2 G,2 A,2 F,2 G,8) | F,8 z8 | z16 | %36
w: Ad te cla-|ma- mus,|ad te cla-|ma\- * * * *|mus,||
 z4 B,,4 F,4 F,4 | (E,8 D,8) | C,16 | z4 E,6 E,2 E,4 | D,4 B,,4 E,8 | F,8 C,4 E,4 | B,,4 _D,4 C,8 | %43
w: ad te cla-|ma\- *|mus|e- xu- les|fi- li- i|E- vae, fi-|li- i E-|
 !fermata!F,16 || z4 F,8 F,4 | B,,4 B,,4 F,8 | E,4 E,4 (A,,2 B,,2 C,2 D,2 | E,8) A,,4 A,,4 | %48
w: vae.|Ad te|su- spi- ra-|mus ge- men\- * * *|* tes, et|
 E,8 A,,8 | (E,6 D,2 C,8) | B,,8 F,8 | z8 z4 B,,4 | (E,8 F,8) | E,4 C,4 (F,6 E,2) | D,8 C,4 C,4 | %55
w: flen- tes|ge\- * *|men- tes|et|flen\- *|tes, ge- men\- *|* tes et|
 (_D,6 C,2 B,,8) | C,8 z8 | z4 A,8 G,4 | F,8 B,,8 | F,4 A,4 E,8 | F,4 F,4 E,8 | A,,6 A,,2 E,8 | %62
w: flen\- * *|tes|in hac|la- cry-|ma- rum val-|le, in hac|la- cry- ma-|
 F,8 C,8- | C,8 !fermata!F,16 || z4 F,4 G,4 E,4 | F,8 C,8 | D,4 E,8 F,4 | (C,6 D,2 E,8) | %68
w: rum val\-|* le.|E- ia er-|go ad-|vo- ca- ta|no\- * *|
 A,,4 A,4 G,4 E,4 | F,4 F,4 C,4 E,4 | B,,16 | F,12 G,4 | A,4 B,4 (C8 | G,8) C,4 C4 | %74
w: stra, e- ia er-|go, e- ia er-|go|ad- vo-|ca- ta no\-|* stra, il-|
 A,4 B,4 G,4 A,4 | F,4 G,4 E,4 F,4 | (F,6 E,D, C,6 D,2 | E,4) A,,4 B,,8 | F,8 G,4 E,4 | %79
w: los tu- os mi-|se- ri- cor- des|o\- * * * *|* cu- los,|il- los tu-|
 A,4 A,,4 _D,4 B,,4 | C,4 F,4 _D,4 E,4 | A,,4 A,4 E,6 E,2 | A,8 E,8 | F,4 F,4 C,8 | F,8 C,8- | %85
w: os, il- los tu-|os mi- se- ri-|cor- des o- cu-|los ad|nos con- ver-|te, il\-|
 C,4 C,4 B,,8 | A,,4 A,4 A,4 G,4 | A,8 E,8 | A,,6 A,,2 _D,8 | C,8 (F,6 E,D, | C,4) _D,4 C,8 | %91
w: * los tu-|os mi- se- ri-|cor- des|o- cu- los|ad nos * *|* con- ver-|
 !fermata!F,24 || B,,8 F,8 | C,8 F,8 | G,4 A,8 B,4 | E,8 F,8 | G,4 E,4 (B,8 | B,,8) E,8 | z16 | %99
w: te.|Et Je-|sum be-|ne- di- ctum|fru- ctum|ven- tris tu\-|* i,||
 B,12 A,4 | G,8 F,8 | E,8 F,8 | E,8 B,,4 F,4 | C,4 C,4 F,8 | (A,6 G,2 F,2 E,2 F,4) | B,,8 z8 | %106
w: be- ne-|di- ctum|fru- ctum|ven- tris tu-|i, no- bis|post * * * *|hoc,|
 B,,8 (F,6 G,2 | A,8) E,8 | F,8 G,8 | A,4 B,4 E,4 G,4 | F,8 E,8 | D,8 (C,6 D,2) | E,8 F,8 | %113
w: no- bis *|* post|hoc ex-|i- li- um o-|sten- de,|o- sten\- *|* de,|
 z4 C,4 F,4 F,4 | E,4 C,4 _D,4 B,,4 | C,16 | F,16 || z4 C,4 (G,2 F,2 E,2 D,2) | %118
w: post hoc ex-|i- li- um o-|sten-|de.|O cle\- * * *|
 (C,4 C6 B,2 A,2 G,2 | F,2 E,2 F,4) (C,2 D,2 E,2 F,2 | G,6 F,2 E,4) C,4 | G,8 !fermata!C,16 || %122
w: |* * * mens, * * *|* * * O|cle- mens.|
 z4 (C,2 D,2 E,2 F,2 G,4) | A,4 F,4 (C2 B,2 A,2 G,2) | (F,6 E,D, C,2 D,2 E,2 F,2 | %125
w: O * * * *|pi- a, O * * *||
 G,2 A,2 B,4) (F,8 | G,8) !fermata!C,16 || z16 | z16 | z4 F,4 C,4 C,4 | _D,8 C,4 A,,4 | _D,8 C,8 | %132
w: * * * pi\-|* a.|||O dul- cis|Vir- go, O|dul- cis|
 F,8 B,,8 | E,8 (F,6 E,2 | D,8) C,8 | z16 | z8 z4 F,4 | D,4 D,4 E,8 | (A,,6 B,,2 C,8- | C,8) F,8 | %140
w: Vir- go|Ma- ri\- *|* a,||O|dul- cis Vir-|go * *|* Ma-|
 B,,16 | !fermata!F,16 |] %142
w: ri-|a.|

